assets/avatar/User 07a.svg

<svg fill="none" height="181" viewBox="0 0 160 181" width="160" xmlns="http://www.w3.org/2000/svg" xmlns:xlink="http://www.w3.org/1999/xlink"><linearGradient id="a" gradientUnits="userSpaceOnUse" x1="87.0399" x2="87.0399" y1="80.9122" y2=".258545"><stop offset="0"/><stop offset="1"/></linearGradient><linearGradient id="b" gradientUnits="userSpaceOnUse" x1="80" x2="80" y1="180.872" y2="113.333"><stop offset="0" stop-color="#e6864e"/><stop offset="1" stop-color="#e67240"/></linearGradient><mask id="c" height="68" maskUnits="userSpaceOnUse" width="160" x="0" y="113"><path d="m10 138.205c-6.34666 12.905-10 42.667-10 42.667h160s-3.655-29.765-10-42.667c-6.345-12.901-43.4-24.867-43.4-24.867-7.142 14.662-46.3387 14.662-53.1807-.005 0 0-37.0726 11.968-43.4193 24.872z" fill="url(#b)"/></mask><path d="m101.334 103.856v.287c.079 6.079 5.19 10.65 15.333 13.713-12.222 8.889-24.4448 16-36.6668 16s-24.4446-7.111-36.6666-16c10.0742-3.067 15.1853-7.644 15.3333-13.733 0-1.086-.008-2.627-.0153-5.521 0-.4596-.0011-.9303-.0034-1.412-.7286.1026-.6666.0373 0-.148-.02-7.6127-.0526-17.8494-.098-28.2527-9.5546-12.3847-6.0446-26.904-3.0506-26.542 3.67.4473 35.472-29.7313 41.572-31.2787 6.1004-1.54729 21.5954 3.448 24.2624 17.3647 2.666 13.9167 3.781 48.9953-6.334 63-2.878 3.9853-7.411 5.5442-13.6 4.6767-.008 2.9126-.026 4.547-.066 7.846z" fill="#d39c72"/><path d="m101.333 96c-14.6662-1.6667-23.9995-8-23.9995-8s10.0933 13.411 23.9995 16z" fill="#ffdbc9"/><path d="m53.6668 69c-4.5933-11.0467-23-33.5447-7.1333-47.5447 5.3333-26 34.8-23.122 54.4665-17.122 13.218 4.03267 23.2 12 25.333 6 13.334 11.122 6.656 22-2.133 25.122-7.977 2.8333-21.467 5.6667-44.4038 3-4.0974-.4767-3.2394 12.072-5.4287 13.4287-3.2847 2.0353-5.834-10.762-14.8394-6.9194-9.0053 3.8427-3.6613 21.66 6.0054 21.66 3.3333 0 5 9.1647-4 13.498-6.5333 3.2107-4.882-3.9446-7.8667-11.1226z" fill="url(#a)"/><path d="m10 138.205c-6.34666 12.905-10 42.667-10 42.667h160s-3.655-29.765-10-42.667c-6.345-12.901-43.4-24.867-43.4-24.867-7.142 14.662-46.3387 14.662-53.1807-.005 0 0-37.0726 11.968-43.4193 24.872z" fill="#000"/><g mask="url(#c)"><path d="m166.667 167.333v-5.333h-173.33384v5.333zm0-13.333v-5.333h-173.33384v5.333zm0-13.333v-5.334h-173.33384v5.334z" fill="#000"/></g></svg>

<svg width="160" height="181" viewBox="0 0 160 181" fill="none" xmlns="http://www.w3.org/2000/svg">
<path d="M101.334 103.856V104.143C101.413 110.222 106.524 114.793 116.667 117.856C104.445 126.745 92.2222 133.856 80.0002 133.856C67.7782 133.856 55.5556 126.745 43.3336 117.856C53.4078 114.789 58.5189 110.212 58.6669 104.123C58.6669 103.037 58.6589 101.496 58.6516 98.602C58.6516 98.1424 58.6505 97.6717 58.6482 97.19C57.9196 97.2926 57.9816 97.2273 58.6482 97.042C58.6282 89.4293 58.5956 79.1926 58.5502 68.7893C48.9956 56.4046 52.5056 41.8853 55.4996 42.2473C59.1696 42.6946 90.9716 12.516 97.0716 10.9686C103.172 9.42131 118.667 14.4166 121.334 28.3333C124 42.25 125.115 77.3286 115 91.3333C112.122 95.3186 107.589 96.8775 101.4 96.01C101.392 98.9226 101.374 100.557 101.334 103.856Z" fill="#D39C72"/>
<g style="mix-blend-mode:multiply">
<path d="M101.333 96C86.6668 94.3333 77.3335 88 77.3335 88C77.3335 88 87.4268 101.411 101.333 104V96Z" fill="#FFDBC9"/>
</g>
<path d="M53.6668 69C49.0735 57.9533 30.6668 35.4553 46.5335 21.4553C51.8668 -4.5447 81.3335 -1.6667 101 4.3333C114.218 8.36597 124.2 16.3333 126.333 10.3333C139.667 21.4553 132.989 32.3333 124.2 35.4553C116.223 38.2886 102.733 41.122 79.7962 38.4553C75.6988 37.9786 76.5568 50.5273 74.3675 51.884C71.0828 53.9193 68.5335 41.122 59.5281 44.9646C50.5228 48.8073 55.8668 66.6246 65.5335 66.6246C68.8668 66.6246 70.5335 75.7893 61.5335 80.1226C55.0002 83.3333 56.6515 76.178 53.6668 69Z" fill="url(#paint0_linear_253_3076)"/>
<path d="M10 138.205C3.65334 151.11 0 180.872 0 180.872H160C160 180.872 156.345 151.107 150 138.205C143.655 125.304 106.6 113.338 106.6 113.338C99.458 128 60.2613 128 53.4193 113.333C53.4193 113.333 16.3467 125.301 10 138.205Z" fill="black"/>
<mask id="mask0_253_3076" style="mask-type:alpha" maskUnits="userSpaceOnUse" x="0" y="113" width="160" height="68">
<path d="M10 138.205C3.65334 151.11 0 180.872 0 180.872H160C160 180.872 156.345 151.107 150 138.205C143.655 125.304 106.6 113.338 106.6 113.338C99.458 128 60.2613 128 53.4193 113.333C53.4193 113.333 16.3467 125.301 10 138.205Z" fill="url(#paint1_linear_253_3076)"/>
</mask>
<g mask="url(#mask0_253_3076)">
<path d="M166.667 167.333V162H-6.66684V167.333H166.667ZM166.667 154V148.667H-6.66684V154H166.667ZM166.667 140.667V135.333H-6.66684V140.667H166.667Z" fill="black"/>
</g>
<defs>
<linearGradient id="paint0_linear_253_3076" x1="87.0399" y1="80.9122" x2="87.0399" y2="0.258545" gradientUnits="userSpaceOnUse">
<stop/>
<stop offset="1"/>
</linearGradient>
<linearGradient id="paint1_linear_253_3076" x1="80" y1="180.872" x2="80" y2="113.333" gradientUnits="userSpaceOnUse">
<stop stop-color="#E6864E"/>
<stop offset="1" stop-color="#E67240"/>
</linearGradient>
</defs>
</svg>
